X:60
T:La Marche Au Camp
M:6/8
R:Jig
K:G
G| "G"Bcd B2G | DGA BGA | "G" Bcd B2G | DGF "Em"E3 |
"Em"EFG "C"DGF | EFG "G"BGG | | DGA "G"BAB  |1"G"dBG "D"A2:|2 "D"cAF "G"G3||
"D"A2A ABc | "D"A2A ABc |"G" B2B BcB | "G"dBG GAB |
"D"A2A ABc | "D"A2A ABc | "G"Bcd gdB | "D"ABA "G"G3:||
